usr/share/icons/biglinux-icons-material/24/actions/mail-signed-full.svg

<svg xmlns="http://www.w3.org/2000/svg" viewBox="0 0 24 24">
  <defs id="defs3051">
    <style type="text/css" id="current-color-scheme">
      .ColorScheme-Text {
        color:#dedede;
      }
      .ColorScheme-PositiveText {
        color:#27ae60;
      }
      </style>
  </defs>
  <path 
     style="fill:currentColor;fill-opacity:1;stroke:none" 
     d="M 2 4 L 2 5 L 2 13 L 2 19 L 2 19.414062 L 2 20 L 3 20 L 9 20 L 12 20 L 12 19 L 9 19 L 3 19 L 3 18.414062 L 3.4628906 17.951172 L 9.7304688 11.683594 L 11.183594 13.134766 L 11.998047 13.949219 L 12 13.949219 L 12.816406 13.134766 L 14.269531 11.683594 L 15.585938 13 L 17 13 L 14.976562 10.976562 L 20.728516 5.2226562 L 20.951172 5 L 21 5 L 21 5.2226562 L 21 11 L 22 11 L 22 4 L 21.951172 4 L 21 4 L 20.537109 4 L 3.4628906 4 L 3 4 L 2 4 z M 3 5 L 3.0488281 5 L 3.2714844 5.2226562 L 9.0234375 10.976562 L 3 17 L 3 13 L 3 5.2226562 L 3 5 z M 4.4628906 5 L 19.537109 5 L 12 12.537109 L 4.4628906 5 z "
     class="ColorScheme-Text"
     />
  <path
     style="fill:currentColor;fill-opacity:1;stroke:none" 
     class="ColorScheme-PositiveText"
     d="M 20 12 L 19.003906 12.994141 L 19 12.990234 L 14 17.988281 L 14.005859 17.994141 L 14 18 L 14.007812 18.007812 L 14.003906 19 L 14 19 L 14 19.990234 L 14 20 L 16 20 L 16.005859 19.994141 L 16.009766 19.990234 C 16.013766 19.990214 16.015531 19.992187 16.019531 19.992188 L 16.013672 19.986328 L 17 19 L 21 15.003906 C 20.9957 15.006406 20.994534 15.007266 20.990234 15.009766 L 21 14.998047 L 21.998047 14 L 22 13.998047 L 20 12 z "
      />
</svg>

<svg xmlns="http://www.w3.org/2000/svg" viewBox="0 0 24 24"><path d="M2 4v16h10v-1H3v-.586l.463-.463 6.267-6.267 1.454 1.45.814.815H12l.816-.814 1.454-1.451L15.586 13H17l-2.023-2.023 5.752-5.754L20.95 5H21v6h1V4H2zm1 1h.049l.222.223 5.752 5.754L3 17V5zm1.463 0h15.074L12 12.537 4.463 5z" style="fill:currentColor;fill-opacity:1;stroke:none;color:#dedede"/><path d="m20 12-.996.994L19 12.99l-5 4.998.006.006L14 18l.008.008-.004.992H14v1h2l.006-.006.004-.004.01.002-.006-.006L17 19l4-3.996-.01.006.01-.012.998-.998.002-.002L20 12z" style="fill:currentColor;fill-opacity:1;stroke:none;color:#27ae60"/></svg>
